flaticon/emoticons/superhero-4.svg

<svg xmlns="http://www.w3.org/2000/svg" width="32" height="32" viewBox="0 0 24 24">
    <path d="M 14.648438 17.121094 L 9.355469 17.121094 C 9.0625 17.121094 8.824219 17.355469 8.824219 17.648438 C 8.824219 17.941406 9.0625 18.179688 9.355469 18.179688 L 14.648438 18.179688 C 14.9375 18.179688 15.175781 17.941406 15.175781 17.648438 C 15.175781 17.355469 14.9375 17.121094 14.648438 17.121094 Z M 14.648438 17.121094"/>
    <path d="M 17.910156 14.8125 C 15.984375 13.210938 13.660156 12.570312 12.75 12.371094 C 12.292969 12.269531 11.816406 12.269531 11.355469 12.371094 C 10.417969 12.578125 8.019531 13.242188 6.074219 14.917969 C 5.3125 15.574219 4.882812 16.535156 4.902344 17.550781 C 4.921875 18.558594 5.378906 19.496094 6.160156 20.121094 C 7.476562 21.171875 9.367188 21.742188 11.789062 21.8125 L 11.789062 21.820312 C 11.878906 21.820312 11.96875 21.820312 12.054688 21.816406 C 12.140625 21.820312 12.230469 21.820312 12.320312 21.820312 L 12.320312 21.8125 C 14.648438 21.742188 16.492188 21.214844 17.796875 20.234375 C 18.648438 19.601562 19.152344 18.632812 19.179688 17.582031 C 19.207031 16.515625 18.746094 15.507812 17.910156 14.8125 Z M 17.164062 19.386719 C 15.992188 20.265625 14.273438 20.726562 12.054688 20.757812 C 9.753906 20.722656 7.992188 20.230469 6.820312 19.292969 C 6.285156 18.867188 5.972656 18.222656 5.960938 17.53125 C 5.949219 16.832031 6.242188 16.171875 6.765625 15.71875 C 8.527344 14.199219 10.722656 13.59375 11.585938 13.402344 C 11.742188 13.367188 11.894531 13.351562 12.054688 13.351562 C 12.214844 13.351562 12.367188 13.367188 12.523438 13.402344 C 13.355469 13.585938 15.484375 14.171875 17.234375 15.628906 C 17.816406 16.113281 18.140625 16.816406 18.121094 17.554688 C 18.101562 18.28125 17.753906 18.949219 17.164062 19.386719 Z M 17.164062 19.386719"/>
    <path d="M 22.230469 6.816406 C 22.234375 6.816406 22.234375 6.8125 22.238281 6.8125 L 22.21875 6.792969 C 21.898438 6.207031 21.53125 5.648438 21.113281 5.125 C 21.132812 5.003906 21.152344 4.882812 21.160156 4.761719 C 21.308594 2.800781 19.960938 1.074219 19.144531 0.21875 C 18.929688 -0.0078125 18.597656 -0.0625 18.316406 0.078125 C 18.039062 0.21875 17.886719 0.519531 17.941406 0.828125 C 18.003906 1.171875 18.09375 1.785156 18.109375 2.457031 C 16.269531 1.316406 14.175781 0.714844 12 0.714844 C 10.253906 0.714844 8.574219 1.089844 7.011719 1.835938 C 6.707031 1.976562 6.410156 2.140625 6.117188 2.3125 C 6.0625 1.71875 6.082031 1.152344 6.113281 0.765625 C 6.140625 0.457031 5.964844 0.171875 5.679688 0.0546875 C 5.398438 -0.0625 5.070312 0.015625 4.871094 0.253906 C 4.179688 1.085938 3.046875 2.765625 3.253906 4.671875 C 3.257812 4.691406 3.261719 4.714844 3.265625 4.734375 C 1.367188 6.855469 0.355469 9.484375 0.355469 12.355469 C 0.355469 18.777344 5.578125 24 12 24 C 18.421875 24 23.644531 18.777344 23.644531 12.355469 C 23.644531 10.414062 23.144531 8.511719 22.230469 6.816406 Z M 20.699219 6.328125 C 20.761719 6.417969 20.816406 6.515625 20.875 6.605469 C 20.707031 6.71875 20.53125 6.8125 20.339844 6.882812 C 20.425781 6.765625 20.507812 6.648438 20.578125 6.527344 C 20.589844 6.507812 20.601562 6.492188 20.613281 6.472656 C 20.640625 6.425781 20.675781 6.378906 20.699219 6.328125 Z M 18.039062 3.691406 C 18.023438 3.769531 18.007812 3.847656 17.988281 3.929688 C 17.984375 3.945312 17.984375 3.960938 17.980469 3.976562 C 17.957031 4.066406 17.933594 4.15625 17.902344 4.246094 C 17.902344 4.25 17.898438 4.257812 17.898438 4.265625 C 17.867188 4.351562 17.832031 4.441406 17.796875 4.527344 C 17.785156 4.554688 17.769531 4.578125 17.757812 4.601562 C 17.730469 4.664062 17.699219 4.722656 17.667969 4.777344 C 17.496094 5.050781 17.269531 5.269531 16.964844 5.394531 C 16.671875 4.660156 16.710938 3.816406 17.117188 3.105469 C 17.429688 3.28125 17.742188 3.46875 18.039062 3.679688 C 18.039062 3.683594 18.039062 3.6875 18.039062 3.691406 Z M 19.148438 1.882812 C 19.671875 2.625 20.183594 3.636719 20.105469 4.679688 C 20.089844 4.859375 20.054688 5.039062 20.007812 5.210938 C 19.980469 5.304688 19.949219 5.390625 19.917969 5.476562 C 19.722656 5.980469 19.382812 6.453125 18.890625 6.898438 L 17.808594 6.179688 C 17.9375 6.089844 18.054688 5.980469 18.164062 5.863281 C 18.199219 5.832031 18.226562 5.796875 18.257812 5.761719 C 18.277344 5.742188 18.296875 5.71875 18.316406 5.699219 C 18.996094 4.902344 19.289062 3.601562 19.148438 1.882812 Z M 7.265625 2.890625 C 7.683594 3.480469 7.828125 4.183594 7.714844 4.859375 C 7.09375 4.550781 6.667969 3.933594 6.480469 3.324219 C 6.734375 3.167969 7 3.023438 7.265625 2.890625 Z M 5.03125 1.855469 C 5.074219 3.265625 5.449219 5.085938 6.96875 5.777344 L 5.648438 6.863281 C 5.398438 6.648438 5.1875 6.4375 5.011719 6.230469 C 4.609375 5.707031 4.371094 5.148438 4.304688 4.554688 C 4.195312 3.546875 4.601562 2.574219 5.03125 1.855469 Z M 4.171875 6.875 C 3.859375 6.753906 3.574219 6.578125 3.324219 6.347656 C 3.414062 6.222656 3.5 6.097656 3.59375 5.976562 C 3.714844 6.234375 3.878906 6.484375 4.070312 6.734375 C 4.105469 6.78125 4.132812 6.828125 4.171875 6.875 Z M 12 22.941406 C 6.164062 22.941406 1.414062 18.191406 1.414062 12.355469 C 1.414062 10.515625 1.871094 8.789062 2.742188 7.253906 C 3.324219 7.746094 4.039062 8.046875 4.8125 8.109375 C 4.917969 8.117188 5.023438 8.121094 5.125 8.121094 C 5.304688 8.121094 5.480469 8.101562 5.65625 8.078125 C 5.660156 8.078125 5.667969 8.074219 5.675781 8.074219 C 6.347656 7.972656 6.984375 7.695312 7.515625 7.246094 C 8.011719 6.824219 8.371094 6.296875 8.585938 5.722656 C 8.589844 5.710938 8.59375 5.699219 8.597656 5.683594 C 8.976562 4.636719 8.875 3.441406 8.257812 2.457031 C 9.449219 2.003906 10.703125 1.769531 12 1.769531 C 13.449219 1.769531 14.855469 2.070312 16.164062 2.636719 C 15.332031 4.148438 15.652344 6.089844 17.015625 7.246094 C 17.554688 7.699219 18.199219 7.980469 18.878906 8.078125 C 18.902344 8.078125 18.929688 8.085938 18.953125 8.082031 C 19.105469 8.101562 19.253906 8.121094 19.40625 8.121094 C 19.507812 8.121094 19.613281 8.117188 19.71875 8.109375 C 20.332031 8.058594 20.910156 7.859375 21.414062 7.535156 C 22.175781 9.019531 22.585938 10.671875 22.585938 12.355469 C 22.585938 18.191406 17.835938 22.941406 12 22.941406 Z M 12 22.941406"/>
    <path d="M10.421875 10.566406C10.421875 9.308594 8.589844 8.648438 6.78125 8.648438 4.976562 8.648438 3.144531 9.308594 3.144531 10.566406 3.144531 11.828125 4.976562 12.484375 6.78125 12.484375 8.589844 12.484375 10.421875 11.828125 10.421875 10.566406zM4.203125 10.566406C4.203125 10.316406 5.105469 9.707031 6.78125 9.707031 8.460938 9.707031 9.363281 10.316406 9.363281 10.566406 9.363281 10.816406 8.460938 11.425781 6.78125 11.425781 5.105469 11.425781 4.203125 10.816406 4.203125 10.566406zM17.367188 8.648438C15.558594 8.648438 13.730469 9.308594 13.730469 10.566406 13.730469 11.828125 15.558594 12.484375 17.367188 12.484375 19.175781 12.484375 21.007812 11.828125 21.007812 10.566406 21.007812 9.308594 19.175781 8.648438 17.367188 8.648438zM17.367188 11.425781C15.691406 11.425781 14.789062 10.816406 14.789062 10.566406 14.789062 10.316406 15.691406 9.707031 17.367188 9.707031 19.042969 9.707031 19.949219 10.316406 19.949219 10.566406 19.949219 10.816406 19.042969 11.425781 17.367188 11.425781zM17.367188 11.425781"/>
</svg>

<svg xmlns="http://www.w3.org/2000/svg" width="32" height="32" viewBox="0 0 24 24">
    <path d="M14.648 17.121H9.355a.528.528 0 1 0 0 1.059h5.293c.29 0 .528-.239.528-.532a.528.528 0 0 0-.528-.527zm0 0"/>
    <path d="M17.91 14.813c-1.926-1.602-4.25-2.243-5.16-2.442a3.23 3.23 0 0 0-1.395 0c-.937.207-3.335.871-5.28 2.547a3.38 3.38 0 0 0-1.173 2.633 3.362 3.362 0 0 0 1.258 2.57c1.317 1.05 3.207 1.621 5.63 1.692v.007c.089 0 .179 0 .265-.004.086.004.175.004.265.004v-.008c2.328-.07 4.172-.597 5.477-1.578a3.4 3.4 0 0 0 1.383-2.652 3.47 3.47 0 0 0-1.27-2.77zm-.746 4.574c-1.172.879-2.89 1.34-5.11 1.37-2.3-.034-4.062-.527-5.234-1.464a2.292 2.292 0 0 1-.86-1.762c-.01-.699.282-1.36.806-1.812 1.761-1.52 3.957-2.125 4.82-2.317.156-.035.309-.05.469-.05.16 0 .312.015.468.05.832.184 2.961.77 4.711 2.227.582.484.907 1.187.887 1.926a2.347 2.347 0 0 1-.957 1.832zm0 0"/>
    <path d="M22.23 6.816c.004 0 .004-.003.008-.003l-.02-.02a11.535 11.535 0 0 0-1.105-1.668c.02-.121.04-.242.047-.363.149-1.961-1.2-3.688-2.015-4.543a.7.7 0 0 0-.829-.14.7.7 0 0 0-.375.75c.063.343.153.956.168 1.628A11.537 11.537 0 0 0 12 .715a11.487 11.487 0 0 0-5.883 1.598A9.26 9.26 0 0 1 6.113.766.7.7 0 0 0 5.68.055a.702.702 0 0 0-.809.199c-.691.832-1.824 2.512-1.617 4.418l.012.062C1.367 6.855.356 9.484.356 12.355.355 18.777 5.577 24 12 24s11.645-5.223 11.645-11.645c0-1.94-.5-3.843-1.415-5.539zm-1.53-.488c.062.09.116.188.175.277a2.484 2.484 0 0 1-.535.278 4.03 4.03 0 0 0 .238-.356c.012-.02.024-.035.035-.054.028-.047.063-.094.086-.145zm-2.66-2.637a6.58 6.58 0 0 1-.052.239c-.004.015-.004.03-.008.047-.023.09-.046.18-.078.27 0 .003-.004.01-.004.019a7.216 7.216 0 0 1-.101.261c-.012.028-.027.051-.04.075a1.502 1.502 0 0 1-.793.793 2.64 2.64 0 0 1 .153-2.29c.313.176.625.364.922.575v.011zm1.108-1.808c.524.742 1.036 1.754.957 2.797-.015.18-.05.36-.097.53-.028.095-.059.18-.09.267-.195.503-.535.976-1.027 1.421l-1.082-.718c.128-.09.246-.2.355-.317.035-.031.063-.066.094-.101.02-.02.039-.043.058-.063.68-.797.973-2.097.832-3.816zM7.266 2.89c.418.59.562 1.293.449 1.968-.621-.308-1.047-.925-1.235-1.535.254-.156.52-.3.786-.433zM5.03 1.855c.043 1.41.418 3.23 1.938 3.922l-1.32 1.086a5.738 5.738 0 0 1-.637-.633c-.403-.523-.64-1.082-.707-1.675-.11-1.008.297-1.98.726-2.7zm-.86 5.02a2.663 2.663 0 0 1-.847-.527c.09-.125.176-.25.27-.371.12.257.285.507.476.757.035.047.063.094.102.141zM12 22.941c-5.836 0-10.586-4.75-10.586-10.586 0-1.84.457-3.566 1.328-5.101a3.645 3.645 0 0 0 2.914.824c.004 0 .012-.004.02-.004a3.691 3.691 0 0 0 1.84-.828 3.696 3.696 0 0 0 1.082-1.562 3.705 3.705 0 0 0-.34-3.227 10.47 10.47 0 0 1 7.906.18 3.71 3.71 0 0 0 .852 4.61c.539.452 1.183.733 1.863.831.023 0 .05.008.074.004.152.02.3.04.453.04a3.687 3.687 0 0 0 2.008-.586 10.568 10.568 0 0 1 1.172 4.82c0 5.835-4.75 10.585-10.586 10.585zm0 0"/>
    <path d="M10.422 10.566c0-1.257-1.832-1.918-3.64-1.918-1.805 0-3.637.66-3.637 1.918 0 1.262 1.832 1.918 3.636 1.918 1.809 0 3.64-.656 3.64-1.918zm-6.219 0c0-.25.902-.859 2.578-.859 1.68 0 2.582.61 2.582.86s-.902.859-2.582.859c-1.676 0-2.578-.61-2.578-.86zm0 0M17.367 8.648c-1.808 0-3.637.66-3.637 1.918 0 1.262 1.829 1.918 3.637 1.918 1.809 0 3.64-.656 3.64-1.918 0-1.257-1.831-1.918-3.64-1.918zm0 2.778c-1.676 0-2.578-.61-2.578-.86s.902-.859 2.578-.859c1.676 0 2.582.61 2.582.86s-.906.859-2.582.859zm0 0"/>
</svg>
